X:1
T:Title
%%score { ( 1 4 ) | ( 2 3 ) }
L:1/8
M:4/4
K:Ab
V:1 treble nm="Grand Piano"
V:4 treble 
V:2 bass 
V:3 bass 
V:1
 z4 z2[Q:1/4=100] B,>B, | E2 G2 [_Gc]2 [CG=A]2 | [B,GB]6 B,>B, | E2 [DEG]2 [C=EGc]2 [B,CEG]2 | %4
[M:3/4] [A,CFA]6 |[M:1/4] A>A |[M:4/4] =d2 d2 c2 c2 | B2 B2 [Ac]2 A2 | [B,EG]8- | %9
[M:3/4] [B,EG]2 z2 z2 |[M:1/4] B,>B, |[M:4/4] E2 [_CFG]2 [EGe]2 [Gc]2 | z4 z2 _c2 | c2 c2 _c2 c2 | %14
[M:3/4] B6 |[M:1/4] B>B |[M:4/4] c2 B2 [A,C=EA]2 [B,EG]2 | F2 z2[K:bass] F2 z2 | %18
 [E,E]4- [E,-B,=DE-]2 [E,-CE-]2 |[M:3/4] [E,B,E]2 z2 z2 |] %20
V:2
 z4 z2 B,,>B,, | E,2 G,2 [E,=A,]2 E,2 | E,6 B,,>B,, | E,2 D,2 C,2 C,2 |[M:3/4] F,6 |[M:1/4] z2 | %6
[M:4/4][K:treble] [B,=DB]4[K:bass] [A,CDA]4 | [G,B,=DG]4 [F,B,D]4 | E,4 B,,4 |[M:3/4] E,,2 z2 z2 | %10
[M:1/4] B,,>B,, |[M:4/4] E,2 =D,2 [C,C]2 [E,E]2 | [G,,G,]6[K:treble] [G,=DG]2 | %13
 [A,A]2 [A,CE]2 [=A,E_G]2 [A,EG]2 |[M:3/4] [B,EG]6 |[M:1/4][K:bass] B,>B, |[M:4/4] C2 B,2 z2 G,2 | %17
 z2 C2 z2 G2 | E,,4 z2 A,2 |[M:3/4] E,,2 z2 z2 |] %20
V:3
 x8 | x8 | x8 | x8 |[M:3/4] x6 |[M:1/4] x2 |[M:4/4][K:treble] z2[K:bass] B,,2 z2 B,,2 | %7
 z2 B,,2 z2 B,,2 | x8 |[M:3/4] x6 |[M:1/4] x2 |[M:4/4] x8 | x6[K:treble] x2 | x8 |[M:3/4] x6 | %15
[M:1/4][K:bass] x2 |[M:4/4] z4 C,4 | [F,,C,F,]4 B,,4 | z4 A,,4 |[M:3/4] x6 |] %20
V:4
 x8 | x8 | x8 | x8 |[M:3/4] x6 |[M:1/4] x2 |[M:4/4] x8 | x8 | x8 |[M:3/4] x6 |[M:1/4] x2 | %11
[M:4/4] x8 | [=DG_c=d]6 d>d | x8 |[M:3/4] x6 |[M:1/4] x2 |[M:4/4] x8 | [=A,E]4[K:bass] [F,_A,=D]4 | %18
 [G,B,]4 z4 |[M:3/4] x6 |] %20

